X: 156
T: The Widowed Bride
N:"Plaintively" "collected by F. O'Neill"
B:O'Neill's 156
Z:Transcribed by henrik.norbeck@mailbox.swipnet.se
M:C
L:1/8
K:Em
(G>F)|E2 (B>c) B2 AB|(cBAG) F2 (G>F)|E2 (e>f) g2 (f>e)|(^d>efd) B2 (AB)|
(cBAG) F2 (G>A)|(BGFE) {e}^d2 ef|(ge)(f^d) (eB) (A/c/B/A/)|G2 (TF2 {EGF}E2)||
z B|e2 (e>f) g2 (f>e)|(b>a)(ga) {g}f2 e^d|eBef g2 fe|(b>a)(ga) {g}f2 AB|
(cBAG) F2 (G>A)|(BGFE) {e}^d2 ef|(ge)(f^d) (eB) (A/c/B/A/)|G2 (TF2 {EGF}E2)||


